src/imagemin/skillx2.svg

<?xml version="1.0" encoding="UTF-8" standalone="no"?>
<svg width="256px" height="272px" viewBox="0 0 256 272" version="1.1" xmlns="http://www.w3.org/2000/svg" xmlns:xlink="http://www.w3.org/1999/xlink" preserveAspectRatio="xMidYMid">
	<g>
		<path d="M0.0996108949,45.522179 L125.908171,0.697276265 L255.103502,44.7252918 L234.185214,211.175097 L125.908171,271.140856 L19.3245136,211.971984 L0.0996108949,45.522179 Z" fill="#E23237"></path>
		<path d="M255.103502,44.7252918 L125.908171,0.697276265 L125.908171,271.140856 L234.185214,211.274708 L255.103502,44.7252918 L255.103502,44.7252918 Z" fill="#B52E31"></path>
		<path d="M126.107393,32.27393 L126.107393,32.27393 L47.7136187,206.692607 L76.9992218,206.194553 L92.7377432,166.848249 L126.207004,166.848249 L126.306615,166.848249 L163.063035,166.848249 L180.29572,206.692607 L208.286381,207.190661 L126.107393,32.27393 L126.107393,32.27393 Z M126.306615,88.155642 L152.803113,143.5393 L127.402335,143.5393 L126.107393,143.5393 L102.997665,143.5393 L126.306615,88.155642 L126.306615,88.155642 Z" fill="#FFFFFF"></path>
	</g>
</svg>

<svg width="256" height="272" xmlns="http://www.w3.org/2000/svg" preserveAspectRatio="xMidYMid"><path d="M.1 45.522L125.908.697l129.196 44.028-20.919 166.45-108.277 59.966-106.583-59.169L.1 45.522z" fill="#E23237"/><path d="M255.104 44.725L125.908.697v270.444l108.277-59.866 20.919-166.55z" fill="#B52E31"/><path d="M126.107 32.274L47.714 206.693l29.285-.498 15.739-39.347h70.325l17.233 39.845 27.99.498-82.179-174.917zm.2 55.882l26.496 55.383h-49.806l23.31-55.383z" fill="#FFF"/></svg>
